X:173
T:Jug of Punch No. 2
Z: id:dc-reel-160
M:C
L:1/8
K:D Dorian
C|A,DDC DEFG|AGG2 AFGF|EA,A,B, CDEF|G2AG FDEC|!
A,DDE F2DE|F2ED CDEG|cded cAGE|FDEC D3:|!
c|Adde fsedf|efed cAAG|AEAB c3d|eaag edcA|!
d3e fedf|efed cAAB|c3A B2AG|FDEC D3:|!

